X: 1
T: The Black Velvet Band
Z: 2006 John Chambers <jc:trillian.mit.edu>
M: 3/4
L: 1/4
K: D
a \
| "D"a2a |     fga |    gf2-| f2e |        def |     dcB |"A7"A3- | A2f/f/ |
| "D"f2f | "A7"ABc | "D"d2e | f2f | "G(Em)"efg | "A7"cde | "D"d3- | d2    |]
